austria/municipalities/41224.svg

<?xml version="1.0" encoding="UTF-8"?>
<!DOCTYPE svg PUBLIC "-//W3C//DTD SVG 1.1//EN" "http://www.w3.org/Graphics/SVG/1.1/DTD/svg11.dtd">
<svg xmlns="http://www.w3.org/2000/svg" version="1.1" width="166px" height="207px" style="shape-rendering:geometricPrecision; text-rendering:geometricPrecision; image-rendering:optimizeQuality; fill-rule:evenodd; clip-rule:evenodd" xmlns:xlink="http://www.w3.org/1999/xlink">
<g><path style="opacity:1" fill="#000000" d="M -0.5,-0.5 C 54.8333,-0.5 110.167,-0.5 165.5,-0.5C 165.5,44.1667 165.5,88.8333 165.5,133.5C 157.475,172.524 134.142,196.858 95.5,206.5C 86.8333,206.5 78.1667,206.5 69.5,206.5C 30.0061,196.67 6.67281,171.67 -0.5,131.5C -0.5,87.5 -0.5,43.5 -0.5,-0.5 Z"/></g>
<g><path style="opacity:1" fill="#fefffe" d="M 3.5,3.5 C 15.5,3.5 27.5,3.5 39.5,3.5C 39.5,17.5 39.5,31.5 39.5,45.5C 33.9789,43.9286 28.3123,42.5952 22.5,41.5C 17.5346,41.9504 12.7013,42.9504 8,44.5C 6.56435,44.4411 5.23101,44.1078 4,43.5C 3.5001,30.1708 3.33344,16.8375 3.5,3.5 Z"/></g>
<g><path style="opacity:1" fill="#cb0000" d="M 42.5,3.5 C 69.8333,3.5 97.1667,3.5 124.5,3.5C 124.833,66.1702 124.5,128.837 123.5,191.5C 103.753,202.803 82.7526,205.636 60.5,200C 54.4737,198.164 48.807,195.664 43.5,192.5C 42.5,129.504 42.1667,66.5035 42.5,3.5 Z"/></g>
<g><path style="opacity:1" fill="#fefffe" d="M 126.5,3.5 C 138.167,3.5 149.833,3.5 161.5,3.5C 161.5,17.5 161.5,31.5 161.5,45.5C 156.791,43.3798 151.791,42.0464 146.5,41.5C 141.535,41.9504 136.701,42.9504 132,44.5C 130.439,44.3968 128.939,44.0634 127.5,43.5C 126.501,30.1833 126.167,16.85 126.5,3.5 Z"/></g>
<g><path style="opacity:1" fill="#000000" d="M 62.5,10.5 C 72.4437,10.2838 78.6104,15.2838 81,25.5C 81.3333,35.8333 81.6667,46.1667 82,56.5C 85.2028,45.8914 88.2028,35.2247 91,24.5C 91.817,19.3365 91.317,14.3365 89.5,9.5C 103.313,15.0525 107.813,25.0525 103,39.5C 99.4999,49.6773 95.8332,59.6773 92,69.5C 96.4226,62.9888 101.089,56.6554 106,50.5C 108.036,45.8138 110.036,41.1472 112,36.5C 114.146,39.1258 115.479,42.1258 116,45.5C 117.096,52.4318 116.43,59.0984 114,65.5C 109.259,72.9115 103.759,79.7449 97.5,86C 98.5,86.6667 99.5,86.6667 100.5,86C 107.382,83.0567 114.049,79.89 120.5,76.5C 122.028,88.1313 117.361,95.9647 106.5,100C 101.78,101.543 97.1134,103.209 92.5,105C 100.5,105.667 108.5,105.667 116.5,105C 120.054,102.34 121.221,103.173 120,107.5C 115.623,117.776 107.79,121.943 96.5,120C 103.478,123.411 110.811,125.245 118.5,125.5C 118.001,133.666 113.668,137.666 105.5,137.5C 100.351,136.967 95.3515,136.134 90.5,135C 97.8743,140.519 105.874,144.686 114.5,147.5C 109.277,153.95 102.611,156.783 94.5,156C 89.1245,153.562 83.9579,150.729 79,147.5C 80.462,152.336 82.6287,157.003 85.5,161.5C 89.3586,164.59 93.3586,167.424 97.5,170C 81.2206,176.277 70.3872,171.11 65,154.5C 64.6174,162.804 62.9507,170.804 60,178.5C 57.1248,182.852 53.2914,184.852 48.5,184.5C 49.4203,181.566 50.0869,178.566 50.5,175.5C 48.7031,165.228 48.2031,154.895 49,144.5C 51.3686,135.751 56.202,128.751 63.5,123.5C 60.5329,120.104 59.0329,116.104 59,111.5C 54.9062,113.441 51.9062,112.441 50,108.5C 49.1705,103.198 48.6705,97.8642 48.5,92.5C 49.9847,71.8135 49.818,51.1468 48,30.5C 46.9605,28.2537 45.7938,26.087 44.5,24C 54.0077,23.4868 59.841,27.9868 62,37.5C 63,43.5 64,49.5 65,55.5C 66.9395,43.2281 67.6062,30.8948 67,18.5C 66.1404,15.3672 64.6404,12.7005 62.5,10.5 Z"/></g>
<g><path style="opacity:1" fill="#fe9900" d="M 83.5,73.5 C 80.935,77.7101 79.2683,77.2101 78.5,72C 85.0054,54.8353 90.0054,37.1687 93.5,19C 93.0393,16.8007 92.8727,14.6341 93,12.5C 101.077,18.5679 103.744,26.5679 101,36.5C 96.3298,49.8443 91.6632,63.1777 87,76.5C 84.6793,77.3613 83.5126,76.3613 83.5,73.5 Z"/></g>
<g><path style="opacity:1" fill="#fe9900" d="M 67.5,13.5 C 73.0734,14.5717 76.5734,17.905 78,23.5C 78.9195,39.2126 78.5862,54.8792 77,70.5C 75.6439,69.6198 74.1439,69.2865 72.5,69.5C 73.4065,61.1823 73.5732,52.849 73,44.5C 71.7252,53.4626 70.7252,62.4626 70,71.5C 69.586,71.9574 69.086,72.2907 68.5,72.5C 67.3401,70.8541 66.6734,69.0208 66.5,67C 67.9034,54.8685 68.9034,42.7018 69.5,30.5C 69.692,24.6779 69.0253,19.0113 67.5,13.5 Z"/></g>
<g><path style="opacity:1" fill="#fe9800" d="M 87.5,115.5 C 82.7448,115.982 81.9114,117.648 85,120.5C 85.6667,122.167 85.6667,123.833 85,125.5C 82.5272,126.12 80.0272,126.786 77.5,127.5C 79.0413,129.204 80.3746,131.037 81.5,133C 79.956,138.221 76.6227,139.888 71.5,138C 75.1074,144.051 73.4408,146.718 66.5,146C 65.2986,145.097 64.4652,143.931 64,142.5C 61.8073,149.631 59.1406,149.965 56,143.5C 56.9381,149.085 57.6047,154.752 58,160.5C 57.4377,155.443 59.1043,151.443 63,148.5C 62.7934,157.946 61.4601,167.279 59,176.5C 56.9835,178.684 54.8169,180.684 52.5,182.5C 51.1828,169.856 50.6828,157.189 51,144.5C 52.978,134.852 58.478,128.185 67.5,124.5C 62.243,120.088 60.0764,114.422 61,107.5C 55.3179,112.356 51.9846,111.022 51,103.5C 51.3412,83.173 51.3412,62.8397 51,42.5C 50.6667,38.1667 50.3333,33.8333 50,29.5C 48.2156,28.3325 48.2156,27.3325 50,26.5C 55.4867,28.6575 58.8201,32.6575 60,38.5C 62.1602,47.7312 62.8269,57.0646 62,66.5C 60.9887,67.3366 59.8221,67.67 58.5,67.5C 58.3022,58.2895 57.1355,49.2895 55,40.5C 55.9309,51.1082 56.5976,61.7749 57,72.5C 61.709,67.9055 64.8757,68.7388 66.5,75C 65.0773,76.412 65.244,77.5787 67,78.5C 68.7398,77.2842 69.7398,75.6175 70,73.5C 72.3333,70.8333 74.6667,70.8333 77,73.5C 77.3333,75.8333 77.6667,78.1667 78,80.5C 80.1911,77.5178 82.5245,77.1845 85,79.5C 85.624,81.4645 85.124,83.1311 83.5,84.5C 84.6507,85.731 85.8173,85.731 87,84.5C 90.5463,88.4577 90.0463,91.9577 85.5,95C 89.9503,95.7756 91.4503,98.2756 90,102.5C 88.082,103.542 86.2487,104.708 84.5,106C 89.2166,108.218 90.2166,111.385 87.5,115.5 Z"/></g>
<g><path style="opacity:1" fill="#003266" d="M 28.5,61.5 C 28.38,60.4138 27.7133,59.7472 26.5,59.5C 24.5288,59.0035 22.5288,58.6702 20.5,58.5C 14.9979,60.4169 9.3312,61.4169 3.5,61.5C 3.5,56.1667 3.5,50.8333 3.5,45.5C 5.19863,45.6204 6.86529,45.9537 8.5,46.5C 13.047,45.309 17.547,43.9756 22,42.5C 27.8265,44.3383 33.6598,46.0049 39.5,47.5C 39.6658,52.1785 39.4992,56.8452 39,61.5C 35.5649,62.4658 32.0649,62.4658 28.5,61.5 Z"/></g>
<g><path style="opacity:1" fill="#fa9601" d="M 111.5,42.5 C 112.966,43.347 113.8,44.6803 114,46.5C 114.667,51.1667 114.667,55.8333 114,60.5C 107.395,70.7053 100.062,80.372 92,89.5C 92.378,85.2425 90.5447,82.5758 86.5,81.5C 92.7536,71.9921 99.2536,62.6587 106,53.5C 107.847,49.8068 109.68,46.1401 111.5,42.5 Z"/></g>
<g><path style="opacity:1" fill="#003266" d="M 143.5,42.5 C 149.788,43.3771 155.788,45.0438 161.5,47.5C 161.5,52.5 161.5,57.5 161.5,62.5C 155.787,61.4837 150.12,60.1503 144.5,58.5C 141.237,58.5645 138.237,59.3978 135.5,61C 132.833,61.6667 130.167,61.6667 127.5,61C 126.529,55.9283 126.195,50.7616 126.5,45.5C 132.64,46.8782 138.307,45.8782 143.5,42.5 Z"/></g>
<g><path style="opacity:1" fill="#000000" d="M 91.5,50.5 C 91.2308,48.5714 91.7308,46.9047 93,45.5C 93.2027,47.3908 92.7027,49.0575 91.5,50.5 Z"/></g>
<g><path style="opacity:1" fill="#000000" d="M 91.5,50.5 C 90.2687,56.5322 88.2687,62.1988 85.5,67.5C 86.4394,61.3805 88.4394,55.7139 91.5,50.5 Z"/></g>
<g><path style="opacity:1" fill="#fefffe" d="M 28.5,61.5 C 31.437,64.032 34.7703,64.6987 38.5,63.5C 39.8087,69.7221 39.8087,75.8888 38.5,82C 33.2167,80.1329 27.7167,78.6329 22,77.5C 19.0441,77.9469 16.2108,78.7803 13.5,80C 10.1832,80.4983 6.8499,80.665 3.5,80.5C 3.17075,74.4632 3.50408,68.4632 4.5,62.5C 5.60738,63.0219 6.77405,63.3552 8,63.5C 12.4634,62.0919 16.9634,60.7585 21.5,59.5C 23.851,60.1734 26.1843,60.8401 28.5,61.5 Z"/></g>
<g><path style="opacity:1" fill="#fefffe" d="M 142.5,59.5 C 148.924,60.9775 155.258,62.6442 161.5,64.5C 161.829,70.5368 161.496,76.5368 160.5,82.5C 152.887,77.4061 144.887,76.5728 136.5,80C 133.183,80.4983 129.85,80.665 126.5,80.5C 126.171,74.4632 126.504,68.4632 127.5,62.5C 132.943,63.6058 137.943,62.6058 142.5,59.5 Z"/></g>
<g><path style="opacity:1" fill="#000000" d="M 85.5,67.5 C 85.7406,69.8984 85.0739,71.8984 83.5,73.5C 83.2594,71.1016 83.9261,69.1016 85.5,67.5 Z"/></g>
<g><path style="opacity:1" fill="#000000" d="M 101.5,67.5 C 104.001,67.5109 104.168,68.1776 102,69.5C 101.536,68.9056 101.369,68.2389 101.5,67.5 Z"/></g>
<g><path style="opacity:1" fill="#000000" d="M 98.5,71.5 C 99.7733,72.0768 99.7733,72.7435 98.5,73.5C 97.537,73.0302 97.537,72.3635 98.5,71.5 Z"/></g>
<g><path style="opacity:1" fill="#000000" d="M 93.5,78.5 C 93.7828,77.7109 94.2828,77.0442 95,76.5C 95.5281,77.816 95.0281,78.4827 93.5,78.5 Z"/></g>
<g><path style="opacity:1" fill="#000000" d="M 93.5,78.5 C 95.0281,78.4827 95.5281,77.816 95,76.5C 94.2828,77.0442 93.7828,77.7109 93.5,78.5 Z"/></g>
<g><path style="opacity:1" fill="#003266" d="M 17.5,79.5 C 23.2328,78.8951 28.5661,80.0617 33.5,83C 35.4727,83.4955 37.4727,83.6621 39.5,83.5C 39.5,88.5 39.5,93.5 39.5,98.5C 36.4816,98.6646 33.4816,98.498 30.5,98C 27.5507,96.2392 24.384,95.0725 21,94.5C 16.5953,95.6351 12.2619,96.9685 8,98.5C 6.77405,98.3552 5.60738,98.0219 4.5,97.5C 3.33719,92.1977 3.17053,86.8643 4,81.5C 8.92674,83.1959 13.4267,82.5292 17.5,79.5 Z"/></g>
<g><path style="opacity:1" fill="#fe9900" d="M 116.5,79.5 C 118.344,80.2039 118.844,81.5372 118,83.5C 116.819,87.3629 114.986,90.8629 112.5,94C 105.971,98.1056 98.9712,100.772 91.5,102C 92.0897,100.491 92.7564,98.9905 93.5,97.5C 96.9824,96.2574 100.316,94.7574 103.5,93C 99.7017,93.4313 96.035,94.5979 92.5,96.5C 91.5,95.5 90.5,94.5 89.5,93.5C 97.8246,89.6714 106.158,85.8381 114.5,82C 115.381,81.2917 116.047,80.4584 116.5,79.5 Z"/></g>
<g><path style="opacity:1" fill="#003266" d="M 141.5,79.5 C 144.518,79.3354 147.518,79.502 150.5,80C 154.009,81.7594 157.675,82.926 161.5,83.5C 161.5,88.5 161.5,93.5 161.5,98.5C 159.143,98.6633 156.81,98.4966 154.5,98C 151.584,96.2492 148.418,95.0826 145,94.5C 140.595,95.6351 136.262,96.9685 132,98.5C 130.373,98.3749 128.873,97.8749 127.5,97C 126.196,91.8861 126.196,86.7195 127.5,81.5C 132.583,83.1162 137.25,82.4495 141.5,79.5 Z"/></g>
<g><path style="opacity:1" fill="#fefffe" d="M 17.5,96.5 C 22.4141,95.8124 26.7474,96.9791 30.5,100C 33.4816,100.498 36.4816,100.665 39.5,100.5C 39.5,106.167 39.5,111.833 39.5,117.5C 33.7792,115.726 27.9458,114.393 22,113.5C 17.1459,113.592 12.4792,114.592 8,116.5C 6.56025,115.852 5.06025,115.519 3.5,115.5C 3.33391,109.824 3.50058,104.157 4,98.5C 8.84233,99.9275 13.3423,99.2608 17.5,96.5 Z"/></g>
<g><path style="opacity:1" fill="#fefffe" d="M 157.5,117.5 C 154.49,114.129 150.656,112.795 146,113.5C 141.269,113.448 136.769,114.448 132.5,116.5C 130.547,115.844 128.547,115.511 126.5,115.5C 126.171,109.794 126.505,104.128 127.5,98.5C 128.939,99.0634 130.439,99.3968 132,99.5C 136.352,98.4851 140.685,97.4851 145,96.5C 148.525,96.6902 151.691,97.8569 154.5,100C 156.81,100.497 159.143,100.663 161.5,100.5C 161.5,106.167 161.5,111.833 161.5,117.5C 160.167,117.5 158.833,117.5 157.5,117.5 Z"/></g>
<g><path style="opacity:1" fill="#fe9900" d="M 87.5,117.5 C 87.5,116.833 87.5,116.167 87.5,115.5C 88.9928,114.555 90.4928,113.555 92,112.5C 96.1236,113.572 100.29,113.738 104.5,113C 99.8627,112.171 95.196,111.671 90.5,111.5C 90.67,110.178 90.3366,109.011 89.5,108C 98.4938,107.5 107.494,107.334 116.5,107.5C 114.689,115.29 109.689,118.956 101.5,118.5C 96.8511,117.872 92.1844,117.539 87.5,117.5 Z"/></g>
<g><path style="opacity:1" fill="#003266" d="M 17.5,114.5 C 24.9786,115.22 32.3119,116.553 39.5,118.5C 39.5,123.833 39.5,129.167 39.5,134.5C 37.1432,134.663 34.8098,134.497 32.5,134C 25.6777,128.628 18.6777,128.295 11.5,133C 9.16667,133.667 6.83333,133.667 4.5,133C 3.52865,127.928 3.19532,122.762 3.5,117.5C 6.8499,117.665 10.1832,117.498 13.5,117C 15.0664,116.392 16.3998,115.558 17.5,114.5 Z"/></g>
<g><path style="opacity:1" fill="#003266" d="M 157.5,117.5 C 158.568,118.434 159.901,118.768 161.5,118.5C 161.5,123.833 161.5,129.167 161.5,134.5C 159.473,134.662 157.473,134.495 155.5,134C 152.267,131.921 148.767,130.421 145,129.5C 140.544,130.654 136.21,131.987 132,133.5C 129.966,133.646 128.299,132.98 127,131.5C 126.333,126.5 126.333,121.5 127,116.5C 130.409,117.622 133.909,117.789 137.5,117C 139.703,115.377 142.203,114.543 145,114.5C 149.278,115.111 153.445,116.111 157.5,117.5 Z"/></g>
<g><path style="opacity:1" fill="#fe9900" d="M 87.5,117.5 C 90.3203,120.081 93.6536,121.914 97.5,123C 103.809,124.993 110.143,126.827 116.5,128.5C 114.344,132.658 111.01,135.325 106.5,136.5C 98.0196,135.506 90.0196,133.006 82.5,129C 84.9393,128.226 86.7727,126.726 88,124.5C 92.5879,126.316 97.2545,127.983 102,129.5C 102.5,129.167 103,128.833 103.5,128.5C 98.5443,125.626 93.211,123.959 87.5,123.5C 87.822,121.278 87.1554,119.444 85.5,118C 86.0944,117.536 86.7611,117.369 87.5,117.5 Z"/></g>
<g><path style="opacity:1" fill="#fefffe" d="M -0.5,131.5 C 6.67281,171.67 30.0061,196.67 69.5,206.5C 46.1667,206.5 22.8333,206.5 -0.5,206.5C -0.5,181.5 -0.5,156.5 -0.5,131.5 Z"/></g>
<g><path style="opacity:1" fill="#fefffe" d="M 17.5,131.5 C 19.5273,131.338 21.5273,131.505 23.5,132C 27.1553,133.886 30.9887,135.386 35,136.5C 36.2259,136.355 37.3926,136.022 38.5,135.5C 39.8333,153.5 39.8333,171.5 38.5,189.5C 18.9228,176.243 7.75616,157.91 5,134.5C 9.5468,135.266 13.7135,134.266 17.5,131.5 Z"/></g>
<g><path style="opacity:1" fill="#fefffe" d="M 140.5,131.5 C 142.857,131.337 145.19,131.503 147.5,132C 151.474,134.602 155.807,136.102 160.5,136.5C 158.415,147.441 154.582,157.774 149,167.5C 142.333,175.5 135,182.833 127,189.5C 126.167,171.158 126.334,152.824 127.5,134.5C 132.369,135.765 136.702,134.765 140.5,131.5 Z"/></g>
<g><path style="opacity:1" fill="#fc9700" d="M 83.5,132.5 C 91.881,139.023 100.881,144.523 110.5,149C 107.097,151.798 103.264,153.631 99,154.5C 91.2352,151.87 83.7352,148.536 76.5,144.5C 75.1667,143.167 75.1667,141.833 76.5,140.5C 77.9411,139.696 79.4411,139.029 81,138.5C 84.4034,140.119 87.57,142.119 90.5,144.5C 90.8333,144.167 91.1667,143.833 91.5,143.5C 88.7544,141.377 85.921,139.377 83,137.5C 83.0187,135.893 83.1854,134.226 83.5,132.5 Z"/></g>
<g><path style="opacity:1" fill="#fefffe" d="M 165.5,133.5 C 165.5,157.833 165.5,182.167 165.5,206.5C 142.167,206.5 118.833,206.5 95.5,206.5C 134.142,196.858 157.475,172.524 165.5,133.5 Z"/></g>
<g><path style="opacity:1" fill="#fe9900" d="M 74.5,145.5 C 77.597,152.077 81.2637,158.411 85.5,164.5C 87.9928,166.58 90.6595,168.414 93.5,170C 87.2757,171.061 81.2757,170.394 75.5,168C 70.4604,162.422 67.1271,155.922 65.5,148.5C 67.7224,148.178 69.5557,148.845 71,150.5C 74.2516,155.334 77.2516,160.334 80,165.5C 78.5198,159.357 76.0198,153.524 72.5,148C 73.3805,147.292 74.0472,146.458 74.5,145.5 Z"/></g>
</svg>

<svg xmlns="http://www.w3.org/2000/svg" width="166" height="207" style="shape-rendering:geometricPrecision;text-rendering:geometricPrecision;image-rendering:optimizeQuality;fill-rule:evenodd;clip-rule:evenodd"><path style="opacity:1" d="M-.5-.5h166v134c-8.025 39.024-31.358 63.358-70 73h-26c-39.494-9.83-62.827-34.83-70-75V-.5z"/><path style="opacity:1" fill="#fefffe" d="M3.5 3.5h36v42a191.827 191.827 0 0 0-17-4 64.892 64.892 0 0 0-14.5 3 9.842 9.842 0 0 1-4-1c-.5-13.33-.667-26.663-.5-40z"/><path style="opacity:1" fill="#cb0000" d="M42.5 3.5h82c.333 62.67 0 125.337-1 188-19.747 11.303-40.747 14.136-63 8.5a76.73 76.73 0 0 1-17-7.5c-1-62.996-1.333-125.996-1-189z"/><path style="opacity:1" fill="#fefffe" d="M126.5 3.5h35v42c-4.709-2.12-9.709-3.454-15-4a64.893 64.893 0 0 0-14.5 3 14.98 14.98 0 0 1-4.5-1 400.775 400.775 0 0 1-1-40z"/><path style="opacity:1" d="M62.5 10.5c9.944-.216 16.11 4.784 18.5 15l1 31a873.145 873.145 0 0 0 9-32c.817-5.163.317-10.164-1.5-15 13.813 5.553 18.313 15.552 13.5 30a782.774 782.774 0 0 1-11 30 307.382 307.382 0 0 1 14-19c2.036-4.686 4.036-9.353 6-14 2.146 2.626 3.479 5.626 4 9 1.096 6.932.43 13.598-2 20A121.364 121.364 0 0 1 97.5 86c1 .667 2 .667 3 0a277.82 277.82 0 0 0 20-9.5c1.528 11.631-3.139 19.465-14 23.5a273.492 273.492 0 0 0-14 5c8 .667 16 .667 24 0 3.554-2.66 4.721-1.827 3.5 2.5-4.377 10.276-12.21 14.443-23.5 12.5 6.978 3.411 14.311 5.245 22 5.5-.499 8.166-4.832 12.166-13 12a120.227 120.227 0 0 1-15-2.5c7.374 5.519 15.374 9.686 24 12.5-5.223 6.45-11.889 9.283-20 8.5a116.639 116.639 0 0 1-15.5-8.5c1.462 4.836 3.629 9.503 6.5 14a123.771 123.771 0 0 0 12 8.5c-16.28 6.277-27.113 1.11-32.5-15.5-.383 8.304-2.05 16.304-5 24-2.875 4.352-6.709 6.352-11.5 6a54.194 54.194 0 0 0 2-9 124.137 124.137 0 0 1-1.5-31c2.369-8.749 7.202-15.749 14.5-21-2.967-3.396-4.467-7.396-4.5-12-4.094 1.941-7.094.941-9-3a130.173 130.173 0 0 1-1.5-16 388.585 388.585 0 0 0-.5-62 60.727 60.727 0 0 0-3.5-6.5c9.508-.513 15.341 3.987 17.5 13.5l3 18a180.052 180.052 0 0 0 2-37c-.86-3.133-2.36-5.8-4.5-8z"/><path style="opacity:1" fill="#fe9900" d="M83.5 73.5c-2.565 4.21-4.232 3.71-5-1.5a319.583 319.583 0 0 0 15-53c-.46-2.2-.627-4.366-.5-6.5 8.077 6.068 10.744 14.068 8 24l-14 40c-2.32.861-3.487-.139-3.5-3zM67.5 13.5c5.573 1.072 9.073 4.405 10.5 10 .92 15.713.586 31.38-1 47-1.356-.88-2.856-1.213-4.5-1a141.097 141.097 0 0 0 .5-25 443.748 443.748 0 0 0-3 27c-.414.457-.914.79-1.5 1a11.017 11.017 0 0 1-2-5.5 552.21 552.21 0 0 0 3-36.5c.192-5.822-.475-11.489-2-17z"/><path style="opacity:1" fill="#fe9800" d="M87.5 115.5c-4.755.482-5.589 2.148-2.5 5 .667 1.667.667 3.333 0 5a261.47 261.47 0 0 0-7.5 2 31.638 31.638 0 0 1 4 5.5c-1.544 5.221-4.877 6.888-10 5 3.607 6.051 1.94 8.718-5 8a6.977 6.977 0 0 1-2.5-3.5c-2.193 7.131-4.86 7.465-8 1a175.091 175.091 0 0 1 2 17c-.562-5.057 1.104-9.057 5-12a118.278 118.278 0 0 1-4 28 55.098 55.098 0 0 1-6.5 6 295.176 295.176 0 0 1-1.5-38c1.978-9.648 7.478-16.315 16.5-20-5.257-4.412-7.424-10.078-6.5-17-5.682 4.856-9.015 3.522-10-4 .341-20.327.341-40.66 0-61l-1-13c-1.784-1.168-1.784-2.168 0-3 5.487 2.157 8.82 6.157 10 12a88.29 88.29 0 0 1 2 28c-1.011.837-2.178 1.17-3.5 1-.198-9.21-1.364-18.21-3.5-27a640.88 640.88 0 0 1 2 32c4.709-4.594 7.876-3.761 9.5 2.5-1.423 1.412-1.256 2.579.5 3.5 1.74-1.216 2.74-2.882 3-5 2.333-2.667 4.667-2.667 7 0l1 7c2.191-2.982 4.525-3.316 7-1 .624 1.965.124 3.631-1.5 5 1.15 1.231 2.317 1.231 3.5 0 3.546 3.958 3.046 7.458-1.5 10.5 4.45.776 5.95 3.276 4.5 7.5a46.996 46.996 0 0 0-5.5 3.5c4.717 2.218 5.717 5.385 3 9.5z"/><path style="opacity:1" fill="#003266" d="M28.5 61.5c-.12-1.086-.787-1.753-2-2a37.286 37.286 0 0 0-6-1 53.666 53.666 0 0 1-17 3v-16c1.699.12 3.365.454 5 1a220.644 220.644 0 0 0 13.5-4 330.887 330.887 0 0 0 17.5 5c.166 4.678 0 9.345-.5 14-3.435.966-6.935.966-10.5 0z"/><path style="opacity:1" fill="#fa9601" d="M111.5 42.5c1.466.847 2.3 2.18 2.5 4a49.226 49.226 0 0 1 0 14 244.1 244.1 0 0 1-22 29c.378-4.257-1.455-6.924-5.5-8a642.677 642.677 0 0 1 19.5-28l5.5-11z"/><path style="opacity:1" fill="#003266" d="M143.5 42.5c6.288.877 12.288 2.544 18 5v15a159.36 159.36 0 0 1-17-4c-3.263.065-6.263.898-9 2.5a16.25 16.25 0 0 1-8 0 62.792 62.792 0 0 1-1-15.5c6.14 1.378 11.807.378 17-3z"/><path style="opacity:1" d="M91.5 50.5c-.27-1.929.23-3.595 1.5-5 .203 1.89-.297 3.557-1.5 5zM91.5 50.5c-1.231 6.032-3.231 11.699-6 17 .94-6.12 2.94-11.786 6-17z"/><path style="opacity:1" fill="#fefffe" d="M28.5 61.5c2.937 2.532 6.27 3.199 10 2 1.309 6.222 1.309 12.389 0 18.5A118.703 118.703 0 0 0 22 77.5a32.434 32.434 0 0 0-8.5 2.5c-3.317.498-6.65.665-10 .5a81.874 81.874 0 0 1 1-18 11.25 11.25 0 0 0 3.5 1 402.41 402.41 0 0 1 13.5-4c2.351.673 4.684 1.34 7 2zM142.5 59.5a312.25 312.25 0 0 1 19 5 81.884 81.884 0 0 1-1 18c-7.613-5.094-15.613-5.927-24-2.5-3.317.498-6.65.665-10 .5a81.884 81.884 0 0 1 1-18c5.443 1.106 10.443.106 15-3z"/><path style="opacity:1" d="M85.5 67.5c.24 2.398-.426 4.398-2 6-.24-2.398.426-4.398 2-6zM101.5 67.5c2.501.01 2.668.678.5 2a2.429 2.429 0 0 1-.5-2zM98.5 71.5c1.273.577 1.273 1.243 0 2-.963-.47-.963-1.136 0-2zM93.5 78.5c.283-.79.783-1.456 1.5-2 .528 1.316.028 1.983-1.5 2z"/><path style="opacity:1" d="M93.5 78.5c1.528-.017 2.028-.684 1.5-2-.717.544-1.217 1.21-1.5 2z"/><path style="opacity:1" fill="#003266" d="M17.5 79.5c5.733-.605 11.066.562 16 3.5 1.973.496 3.973.662 6 .5v15a40.936 40.936 0 0 1-9-.5 27.24 27.24 0 0 0-9.5-3.5 146.602 146.602 0 0 0-13 4 11.25 11.25 0 0 1-3.5-1 43.227 43.227 0 0 1-.5-16c4.927 1.696 9.427 1.03 13.5-2z"/><path style="opacity:1" fill="#fe9900" d="M116.5 79.5c1.844.704 2.344 2.037 1.5 4a31.653 31.653 0 0 1-5.5 10.5c-6.529 4.106-13.529 6.772-21 8a54.587 54.587 0 0 1 2-4.5 67.828 67.828 0 0 0 10-4.5c-3.798.431-7.465 1.598-11 3.5l-3-3 25-11.5c.881-.708 1.547-1.542 2-2.5z"/><path style="opacity:1" fill="#003266" d="M141.5 79.5a40.939 40.939 0 0 1 9 .5 36.476 36.476 0 0 0 11 3.5v15a24.939 24.939 0 0 1-7-.5c-2.916-1.75-6.082-2.917-9.5-3.5a146.581 146.581 0 0 0-13 4 9.622 9.622 0 0 1-4.5-1.5c-1.304-5.114-1.304-10.28 0-15.5 5.083 1.616 9.75.95 14-2z"/><path style="opacity:1" fill="#fefffe" d="M17.5 96.5c4.914-.688 9.247.48 13 3.5 2.982.498 5.982.665 9 .5v17a118.342 118.342 0 0 0-17.5-4 37.2 37.2 0 0 0-14 3 11.185 11.185 0 0 0-4.5-1c-.166-5.676 0-11.343.5-17 4.842 1.427 9.342.76 13.5-2zM157.5 117.5c-3.01-3.371-6.844-4.705-11.5-4a29.998 29.998 0 0 0-13.5 3 19.048 19.048 0 0 0-6-1 73.133 73.133 0 0 1 1-17 14.98 14.98 0 0 0 4.5 1c4.352-1.015 8.685-2.015 13-3 3.525.19 6.691 1.357 9.5 3.5 2.31.497 4.643.663 7 .5v17h-4z"/><path style="opacity:1" fill="#fe9900" d="M87.5 117.5v-2a116.717 116.717 0 0 0 4.5-3 29.13 29.13 0 0 0 12.5.5 100.173 100.173 0 0 0-14-1.5c.17-1.322-.163-2.489-1-3.5 8.994-.5 17.994-.666 27-.5-1.811 7.79-6.811 11.456-15 11a111.404 111.404 0 0 0-14-1z"/><path style="opacity:1" fill="#003266" d="M17.5 114.5c7.479.72 14.812 2.053 22 4v16a24.935 24.935 0 0 1-7-.5c-6.822-5.372-13.822-5.705-21-1a12.494 12.494 0 0 1-7 0 62.79 62.79 0 0 1-1-15.5c3.35.165 6.683-.002 10-.5 1.566-.608 2.9-1.442 4-2.5zM157.5 117.5c1.068.934 2.401 1.268 4 1v16a18.453 18.453 0 0 1-6-.5 34.364 34.364 0 0 0-10.5-4.5 148.497 148.497 0 0 0-13 4c-2.034.146-3.701-.52-5-2-.667-5-.667-10 0-15 3.409 1.122 6.909 1.289 10.5.5 2.203-1.623 4.703-2.457 7.5-2.5a68.277 68.277 0 0 1 12.5 3z"/><path style="opacity:1" fill="#fe9900" d="M87.5 117.5c2.82 2.581 6.154 4.414 10 5.5a406.687 406.687 0 0 0 19 5.5c-2.156 4.158-5.49 6.825-10 8a67.255 67.255 0 0 1-24-7.5c2.44-.774 4.273-2.274 5.5-4.5a220.233 220.233 0 0 0 14 5l1.5-1a37.492 37.492 0 0 0-16-5c.322-2.222-.345-4.056-2-5.5a2.429 2.429 0 0 1 2-.5z"/><path style="opacity:1" fill="#fefffe" d="M-.5 131.5c7.173 40.17 30.506 65.17 70 75h-70v-75z"/><path style="opacity:1" fill="#fefffe" d="M17.5 131.5a18.452 18.452 0 0 1 6 .5 60.058 60.058 0 0 0 11.5 4.5 11.254 11.254 0 0 0 3.5-1c1.333 18 1.333 36 0 54-19.577-13.257-30.744-31.59-33.5-55 4.547.766 8.713-.234 12.5-3zM140.5 131.5c2.357-.163 4.69.003 7 .5 3.974 2.602 8.307 4.102 13 4.5-2.085 10.941-5.918 21.274-11.5 31-6.667 8-14 15.333-22 22a504.815 504.815 0 0 1 .5-55c4.869 1.265 9.202.265 13-3z"/><path style="opacity:1" fill="#fc9700" d="M83.5 132.5a140.013 140.013 0 0 0 27 16.5c-3.403 2.798-7.236 4.631-11.5 5.5a135.01 135.01 0 0 1-22.5-10c-1.333-1.333-1.333-2.667 0-4a27.078 27.078 0 0 1 4.5-2 47.081 47.081 0 0 1 9.5 6l1-1a119.489 119.489 0 0 0-8.5-6c.019-1.607.185-3.274.5-5z"/><path style="opacity:1" fill="#fefffe" d="M165.5 133.5v73h-70c38.642-9.642 61.975-33.976 70-73z"/><path style="opacity:1" fill="#fe9900" d="M74.5 145.5a130.8 130.8 0 0 0 11 19 52.123 52.123 0 0 0 8 5.5c-6.224 1.061-12.224.394-18-2-5.04-5.578-8.373-12.078-10-19.5 2.222-.322 4.056.345 5.5 2a169.463 169.463 0 0 1 9 15c-1.48-6.143-3.98-11.976-7.5-17.5.88-.708 1.547-1.542 2-2.5z"/></svg>
